theme/dist/icons/message.svg

<svg clip-rule="evenodd" fill-rule="evenodd" stroke-linejoin="round" stroke-miterlimit="1.41421" viewBox="0 0 512 512" xmlns="http://www.w3.org/2000/svg"><path d="m256 0c-141.484 0-256 114.496-256 256 0 44.902 11.711 88.758 33.949 127.438l-32.984 102.429c-2.301 7.141-.41 14.969 4.894 20.274 5.254 5.254 13.063 7.214 20.274 4.894l102.43-32.984c38.679 22.238 82.535 33.949 127.437 33.949 141.484 0 256-114.496 256-256 0-141.484-114.496-256-256-256zm0 472c-40.559 0-80.094-11.316-114.332-32.727-4.926-3.078-11.043-3.91-16.734-2.078l-73.942 23.813 23.813-73.942c1.804-5.609 1.043-11.734-2.082-16.734-21.407-34.238-32.723-73.773-32.723-114.332 0-119.102 96.898-216 216-216s216 96.898 216 216-96.898 216-216 216zm25-216c0 13.805-11.191 25-25 25s-25-11.195-25-25c0-13.809 11.191-25 25-25s25 11.191 25 25zm100 0c0 13.805-11.191 25-25 25s-25-11.195-25-25c0-13.809 11.191-25 25-25s25 11.191 25 25zm-200 0c0 13.805-11.191 25-25 25-13.805 0-25-11.195-25-25 0-13.809 11.195-25 25-25 13.809 0 25 11.191 25 25z" fill="#8c8c8c" fill-rule="nonzero"/></svg>

<?xml version="1.0" encoding="UTF-8" standalone="no"?>
<!DOCTYPE svg PUBLIC "-//W3C//DTD SVG 1.1//EN" "http://www.w3.org/Graphics/SVG/1.1/DTD/svg11.dtd">
<svg width="100%" height="100%" viewBox="0 0 512 512" version="1.1" xmlns="http://www.w3.org/2000/svg" xmlns:xlink="http://www.w3.org/1999/xlink" xml:space="preserve" xmlns:serif="http://www.serif.com/" style="fill-rule:evenodd;clip-rule:evenodd;stroke-linejoin:round;stroke-miterlimit:1.41421;">
    <path d="M256,0C114.516,0 0,114.496 0,256C0,300.902 11.711,344.758 33.949,383.438L0.965,485.867C-1.336,493.008 0.555,500.836 5.859,506.141C11.113,511.395 18.922,513.355 26.133,511.035L128.563,478.051C167.242,500.289 211.098,512 256,512C397.484,512 512,397.504 512,256C512,114.516 397.504,0 256,0ZM256,472C215.441,472 175.906,460.684 141.668,439.273C136.742,436.195 130.625,435.363 124.934,437.195L50.992,461.008L74.805,387.066C76.609,381.457 75.848,375.332 72.723,370.332C51.316,336.094 40,296.559 40,256C40,136.898 136.898,40 256,40C375.102,40 472,136.898 472,256C472,375.102 375.102,472 256,472ZM281,256C281,269.805 269.809,281 256,281C242.191,281 231,269.805 231,256C231,242.191 242.191,231 256,231C269.809,231 281,242.191 281,256ZM381,256C381,269.805 369.809,281 356,281C342.191,281 331,269.805 331,256C331,242.191 342.191,231 356,231C369.809,231 381,242.191 381,256ZM181,256C181,269.805 169.809,281 156,281C142.195,281 131,269.805 131,256C131,242.191 142.195,231 156,231C169.809,231 181,242.191 181,256Z" style="fill:rgb(140,140,140);fill-rule:nonzero;"/>
</svg>
